remix/Device/hard-drive-line.svg

<svg viewBox="0 0 24 24" fill="currentColor" xmlns="http://www.w3.org/2000/svg"><path d="M5 10.9381C8.61872 10.4869 11.4869 7.61872 11.9381 4H5V10.9381ZM5 12.9506V20H19V4H13.9506C13.4816 8.72442 9.72442 12.4816 5 12.9506ZM4 2H20C20.5523 2 21 2.44772 21 3V21C21 21.5523 20.5523 22 20 22H4C3.44772 22 3 21.5523 3 21V3C3 2.44772 3.44772 2 4 2ZM15 16H17V18H15V16Z"/></svg>

<svg viewBox="0 0 24 24" xmlns="http://www.w3.org/2000/svg"><path fill="none" d="M0 0h24v24H0Z"/><path d="M5 10.93v0c3.62-.46 6.48-3.32 6.93-6.938H4.99v6.938Zm0 2.013v7.04h14v-16h-5.05v0c-.48 4.73-4.22 8.47-8.95 8.95ZM4 1.98h16v0c.55 0 1 .44 1 1v18 0c0 .55-.45 1-1 1H4v0c-.56 0-1-.45-1-1v-18 0c0-.56.44-1 1-1Zm11 14h2v2h-2v-2Z"/></svg>
